X: 4375
T: OLD MARCH
R: March
%R: march
B: James Kerr "Merry Melodies" v.4 p.40 #375
Z: 2016 John Chambers <jc:trillian.mit.edu>
N: The odd use of alternate endings seems to mean the usual rondo form (AABACA)
M: C
L: 1/8
K: G
D2 !segno!||\
G2G>G G2A2 | B2B>B B2c2 | (de/f/ g)f edcB | A2A>A A2D2 |\
G2G>G G2A2 | B2B>B B2c2 | d>ef>g B2A2 | G2G>G G2 :|
[1 A2 |\
d2d>d d2e2 | f2f>f f2g2 | afaf bagf | e2e>e e2A2 |\
d2d>d d2e2 | f2f>f f2g2 | a>fb>g fed^c | d2d>e d=cBA !segno!|]
[2 D2 |\
G3D GDGD | B3G BGBG | d3B dBdB | g3d gdgd |\
g>ab>a g>fe>d | e>fg>f g>ed>c | B4 A4 | G3b gbgb | g2g>g "_D.C."g2 |]

%%sep 1 1 500
%%sep 1 1 500

